icons/cpu-24.svg

<svg width="24" height="24" viewBox="0 0 24 24" fill="none" xmlns="http://www.w3.org/2000/svg">
<path fill-rule="evenodd" clip-rule="evenodd" d="M8.75 8C8.33579 8 8 8.33579 8 8.75V15.25C8 15.6642 8.33579 16 8.75 16H15.25C15.6642 16 16 15.6642 16 15.25V8.75C16 8.33579 15.6642 8 15.25 8H8.75ZM9.5 14.5V9.5H14.5V14.5H9.5Z" fill="#24292E"/>
<path fill-rule="evenodd" clip-rule="evenodd" d="M15.25 1C15.6642 1 16 1.33579 16 1.75V4H18.25C19.2165 4 20 4.7835 20 5.75V8H22.25C22.6642 8 23 8.33579 23 8.75C23 9.16421 22.6642 9.5 22.25 9.5H20V14.5H22.25C22.6642 14.5 23 14.8358 23 15.25C23 15.6642 22.6642 16 22.25 16H20V18.25C20 19.2165 19.2165 20 18.25 20H16V22.25C16 22.6642 15.6642 23 15.25 23C14.8358 23 14.5 22.6642 14.5 22.25V20H9.5V22.25C9.5 22.6642 9.16421 23 8.75 23C8.33579 23 8 22.6642 8 22.25V20H5.75C4.7835 20 4 19.2165 4 18.25V16H1.75C1.33579 16 1 15.6642 1 15.25C1 14.8358 1.33579 14.5 1.75 14.5H4V9.5H1.75C1.33579 9.5 1 9.16421 1 8.75C1 8.33579 1.33579 8 1.75 8H4V5.75C4 4.7835 4.7835 4 5.75 4H8V1.75C8 1.33579 8.33579 1 8.75 1C9.16421 1 9.5 1.33579 9.5 1.75V4H14.5V1.75C14.5 1.33579 14.8358 1 15.25 1ZM18.25 18.5C18.3881 18.5 18.5 18.3881 18.5 18.25V5.75C18.5 5.61193 18.3881 5.5 18.25 5.5H5.75C5.61193 5.5 5.5 5.61193 5.5 5.75V18.25C5.5 18.3881 5.61193 18.5 5.75 18.5H18.25Z" fill="#24292E"/>
</svg>

<svg xmlns="http://www.w3.org/2000/svg" width="24" height="24" viewBox="0 0 24 24"><path fill-rule="evenodd" d="M8.75 8a.75.75 0 00-.75.75v6.5c0 .414.336.75.75.75h6.5a.75.75 0 00.75-.75v-6.5a.75.75 0 00-.75-.75h-6.5zm.75 6.5v-5h5v5h-5z"/><path fill-rule="evenodd" d="M15.25 1a.75.75 0 01.75.75V4h2.25c.966 0 1.75.784 1.75 1.75V8h2.25a.75.75 0 010 1.5H20v5h2.25a.75.75 0 010 1.5H20v2.25A1.75 1.75 0 0118.25 20H16v2.25a.75.75 0 01-1.5 0V20h-5v2.25a.75.75 0 01-1.5 0V20H5.75A1.75 1.75 0 014 18.25V16H1.75a.75.75 0 010-1.5H4v-5H1.75a.75.75 0 010-1.5H4V5.75C4 4.784 4.784 4 5.75 4H8V1.75a.75.75 0 011.5 0V4h5V1.75a.75.75 0 01.75-.75zm3 17.5a.25.25 0 00.25-.25V5.75a.25.25 0 00-.25-.25H5.75a.25.25 0 00-.25.25v12.5c0 .138.112.25.25.25h12.5z"/></svg>
